icons/ppe-mask.svg

<svg width="48" height="48" viewBox="0 0 48 48" fill="none" xmlns="http://www.w3.org/2000/svg">
<path d="M30.2423 20.0299L23.9998 18.4692L17.7572 20.0299C17.2214 20.1638 16.8957 20.7068 17.0296 21.2425C17.1636 21.7783 17.7065 22.1041 18.2423 21.9702L23.9998 20.5308L29.7572 21.9702C30.293 22.1041 30.8359 21.7783 30.9699 21.2425C31.1038 20.7068 30.7781 20.1638 30.2423 20.0299Z" fill="black"/>
<path fill-rule="evenodd" clip-rule="evenodd" d="M8.99976 16.8683C8.99976 12.6419 20.1602 12.6419 20.1602 12.6419L21.0608 11.0263C21.4139 10.3927 22.0824 10 22.8077 10H25.3667C26.092 10 26.7604 10.3926 27.1136 11.0261L28.0142 12.6415C28.0142 12.6415 38.9998 12.6419 38.9998 16.8683C38.9998 16.9239 38.9997 16.9794 38.9995 17.0348L40.7304 17.4548C42.6513 17.9209 43.9437 19.7203 43.772 21.6895L43.2182 28.0392C43.0807 29.6153 42.0271 30.9623 40.5305 31.4754L33.4394 33.9064C29.3436 38 24.4836 38 24.4836 38H23.5159C23.5159 38 18.6502 38 14.5529 33.8992L7.36111 31.1024C5.95199 30.5544 4.97226 29.2587 4.82891 27.7536L4.25552 21.7329C4.06417 19.7237 5.39957 17.8868 7.36978 17.4489L9.00028 17.0866C8.99994 17.0141 8.99976 16.9413 8.99976 16.8683ZM9.05762 19.1226L7.80364 19.4013C6.81854 19.6202 6.15083 20.5387 6.24651 21.5433L6.8199 27.564C6.89158 28.3165 7.38144 28.9644 8.086 29.2384L12.1824 30.8314C10.5548 28.1007 9.33176 24.3299 9.05762 19.1226ZM35.7061 31.0151L39.8819 29.5835C40.6302 29.327 41.157 28.6535 41.2258 27.8654L41.7796 21.5158C41.8654 20.5311 41.2192 19.6314 40.2587 19.3984L38.9442 19.0794C38.6685 24.427 37.3935 28.2631 35.7061 31.0151ZM22.8031 12.0107C22.6776 12.2323 22.5627 12.4458 22.4534 12.6487C21.8201 13.8249 21.3772 14.6473 20.1782 14.6473C14.2364 14.6473 11.1902 16.2197 11.1902 16.7917C11.1902 33.2373 20.1634 35.8195 23.782 35.9903C23.8531 35.9968 23.9256 36 23.9997 36C24.0293 36 24.0594 35.9998 24.09 35.9995C24.1207 35.9998 24.1508 36 24.1804 36C24.2545 36 24.327 35.9968 24.3981 35.9903C28.0167 35.8195 36.9899 33.2373 36.9899 16.7917C36.9899 16.2197 33.9437 14.6473 28.0019 14.6473C26.8029 14.6473 26.3601 13.825 25.7267 12.6488C25.6175 12.446 25.5024 12.2322 25.377 12.0107H22.8031Z" fill="black"/>
</svg>

<svg
  xmlns="http://www.w3.org/2000/svg"
  width="24"
  height="24"
  viewBox="0 0 24 24"
  fill="none"
  stroke="currentColor"
  stroke-width="2"
  stroke-linecap="round"
  stroke-linejoin="round"
>
  <path d="M30.242 20.03 24 18.47l-6.243 1.56a1 1 0 1 0 .485 1.94L24 20.53l5.757 1.44a1 1 0 0 0 .485-1.94" />
  <path
    fill-rule="evenodd"
    d="M9 16.868c0-4.226 11.16-4.226 11.16-4.226l.9-1.616A2 2 0 0 1 22.809 10h2.559a2 2 0 0 1 1.747 1.026l.9 1.616S39 12.642 39 16.868v.167l1.73.42a4 4 0 0 1 3.042 4.235l-.554 6.35a4 4 0 0 1-2.687 3.435l-7.092 2.431C29.344 38 24.484 38 24.484 38h-.968s-4.866 0-8.963-4.1L7.36 31.101a4 4 0 0 1-2.532-3.348l-.573-6.021a4 4 0 0 1 3.114-4.284L9 17.087zm.058 2.255-1.254.278a2 2 0 0 0-1.557 2.142l.573 6.021a2 2 0 0 0 1.266 1.674l4.096 1.593c-1.627-2.73-2.85-6.501-3.124-11.708m26.648 11.892 4.176-1.431a2 2 0 0 0 1.344-1.719l.554-6.35a2 2 0 0 0-1.521-2.117l-1.315-.319c-.276 5.348-1.55 9.184-3.238 11.936M22.803 12.011q-.186.332-.35.638c-.633 1.176-1.076 1.998-2.275 1.998-5.942 0-8.988 1.573-8.988 2.145 0 16.445 8.973 19.027 12.592 19.198a2 2 0 0 0 .308.01h.09q.112 0 .218-.01c3.619-.17 12.592-2.753 12.592-19.198 0-.572-3.046-2.145-8.988-2.145-1.2 0-1.642-.822-2.275-1.998q-.164-.306-.35-.638z"
    clip-rule="evenodd"
  />
</svg>
